modules/ve/ui/styles/images/icons/secure-link.svg

<?xml version="1.0" encoding="utf-8"?>
<svg xmlns="http://www.w3.org/2000/svg" width="12" height="12" viewBox="0 0 12 12">
    <g id="secure" opacity=".75">
        <path id="lock" d="M8 5h.019v-.997c.001-.057.004-1.409-.832-2.255-.434-.438-.998-.66-1.679-.66s-1.245.222-1.678.659c-.837.847-.833 2.199-.832 2.251v1.002h.002c-.553 0-1 .447-1 1v3c0 .553.447 1 1 1h5c.553 0 1-.447 1-1v-3c0-.553-.447-1-1-1zm-4.002 0v-1.007c0-.01.005-.999.543-1.543.482-.485 1.449-.487 1.932-.002.544.546.546 1.536.546 1.55v1.002h-3.021z" fill-rule="evenodd" clip-rule="evenodd"/>
    </g>
</svg>

<?xml version="1.0" encoding="utf-8"?>
<!DOCTYPE svg PUBLIC "-//W3C//DTD SVG 1.1//EN" "http://www.w3.org/Graphics/SVG/1.1/DTD/svg11.dtd">
<svg version="1.1" xmlns="http://www.w3.org/2000/svg" xmlns:xlink="http://www.w3.org/1999/xlink" x="0px" y="0px" width="12px"
	 height="12px" viewBox="0 0 12 12" style="enable-background:new 0 0 12 12;" xml:space="preserve">
<g id="secure" style="opacity:0.75;">
	<path id="lock" style="fill-rule:evenodd;clip-rule:evenodd;" d="M8,5h0.019V4.003C8.02,3.946,8.023,2.594,7.187,1.748
		c-0.434-0.438-0.998-0.66-1.679-0.66S4.263,1.31,3.83,1.747C2.993,2.594,2.997,3.946,2.998,3.998V5H3C2.447,5,2,5.447,2,6v3
		c0,0.553,0.447,1,1,1h5c0.553,0,1-0.447,1-1V6C9,5.447,8.553,5,8,5z M3.998,5V3.993c0-0.01,0.005-0.999,0.543-1.543
		C5.023,1.965,5.99,1.963,6.473,2.448c0.544,0.546,0.546,1.536,0.546,1.55V5H3.998z"/>
</g>
</svg>
